imagenes/maps.svg

<svg xmlns="http://www.w3.org/2000/svg" width="40" height="40" viewBox="0 0 48 48"><path fill="#48b564" d="M35.76 26.36h.01S32 31.89 28.83 36c-2.74 3.55-3.54 6.59-3.77 8.06-.09.54-.53.94-1.06.94s-.97-.4-1.06-.94c-.23-1.47-1.03-4.51-3.77-8.06-.42-.55-.85-1.12-1.28-1.7L28.24 22l8.33-9.88c.92 1.93 1.43 4.09 1.43 6.38 0 2.9-.83 5.59-2.24 7.86z"/><path fill="#fcc60e" d="M28.24 22 17.89 34.3c-2.82-3.78-5.66-7.94-5.66-7.94h.01c-.3-.48-.57-.97-.8-1.48L19.76 15c-.79.95-1.26 2.17-1.26 3.5 0 3.04 2.46 5.5 5.5 5.5 1.71 0 3.24-.78 4.24-2z"/><path fill="#2c85eb" d="m28.4 4.74-8.57 10.18-6.56-5.72C15.83 6.02 19.69 4 24 4c1.54 0 3.02.26 4.4.74z"/><path fill="#ed5748" d="m19.83 14.92-.07.08-8.32 9.88C10.52 22.95 10 20.79 10 18.5c0-3.54 1.23-6.79 3.27-9.3l6.56 5.72z"/><path fill="#5695f6" d="M28.24 22c.79-.95 1.26-2.17 1.26-3.5 0-3.04-2.46-5.5-5.5-5.5-1.71 0-3.24.78-4.24 2L28.4 4.74c3.59 1.22 6.53 3.91 8.17 7.38L28.24 22z"/></svg>

<svg xmlns="http://www.w3.org/2000/svg"  viewBox="0 0 48 48" width="40px" height="40px"><path fill="#48b564" d="M35.76,26.36h0.01c0,0-3.77,5.53-6.94,9.64c-2.74,3.55-3.54,6.59-3.77,8.06	C24.97,44.6,24.53,45,24,45s-0.97-0.4-1.06-0.94c-0.23-1.47-1.03-4.51-3.77-8.06c-0.42-0.55-0.85-1.12-1.28-1.7L28.24,22l8.33-9.88	C37.49,14.05,38,16.21,38,18.5C38,21.4,37.17,24.09,35.76,26.36z"/><path fill="#fcc60e" d="M28.24,22L17.89,34.3c-2.82-3.78-5.66-7.94-5.66-7.94h0.01c-0.3-0.48-0.57-0.97-0.8-1.48L19.76,15	c-0.79,0.95-1.26,2.17-1.26,3.5c0,3.04,2.46,5.5,5.5,5.5C25.71,24,27.24,23.22,28.24,22z"/><path fill="#2c85eb" d="M28.4,4.74l-8.57,10.18L13.27,9.2C15.83,6.02,19.69,4,24,4C25.54,4,27.02,4.26,28.4,4.74z"/><path fill="#ed5748" d="M19.83,14.92L19.76,15l-8.32,9.88C10.52,22.95,10,20.79,10,18.5c0-3.54,1.23-6.79,3.27-9.3	L19.83,14.92z"/><path fill="#5695f6" d="M28.24,22c0.79-0.95,1.26-2.17,1.26-3.5c0-3.04-2.46-5.5-5.5-5.5c-1.71,0-3.24,0.78-4.24,2L28.4,4.74	c3.59,1.22,6.53,3.91,8.17,7.38L28.24,22z"/></svg>
